packages/foundations/icons/Food/Cutlery.svg

<svg width="24" height="24" viewBox="0 0 24 24" fill="none" xmlns="http://www.w3.org/2000/svg">
<path fill-rule="evenodd" clip-rule="evenodd" d="M6.86102 10.8116C6.3673 10.6193 5.6641 10.1604 5.28991 9.78626L0.203632 4.69998C0.0125567 4.50891 0.0151009 4.19657 0.19707 4.0146C0.384522 3.82715 0.691172 3.82988 0.869787 4.00849L4.27611 7.41482C4.46019 7.5989 4.76686 7.59068 4.94883 7.40871C5.13628 7.22126 5.13355 6.91461 4.95493 6.73599L1.54861 3.32967C1.36453 3.14559 1.37275 2.83892 1.55472 2.65695C1.74217 2.4695 2.04882 2.47223 2.22743 2.65085L5.63376 6.05717C5.81784 6.24125 6.1245 6.23304 6.30647 6.05107C6.49392 5.86361 6.49119 5.55696 6.31258 5.37835L2.90626 1.97202C2.72218 1.78795 2.73039 1.48128 2.91236 1.29931C3.09981 1.11186 3.40279 1.11092 3.59774 1.30587L8.68402 6.39214C9.058 6.76613 9.52051 7.47834 9.70939 7.96325L10.3124 9.51122C10.5047 10.0049 10.9678 10.7069 11.3465 11.0788L22.4032 21.9376C22.782 22.3097 22.7878 22.9126 22.4103 23.2901C22.0354 23.665 21.4242 23.6672 21.0455 23.2953L9.98886 12.4365C9.61003 12.0644 8.8939 11.6035 8.40899 11.4146L6.86102 10.8116Z" fill="#3D474D"/>
<path fill-rule="evenodd" clip-rule="evenodd" d="M10.2816 14.1105L11.6486 15.4765L3.91788 23.1931C3.57032 23.54 3.02293 23.5686 2.64571 23.2758L2.55517 23.196L2.47476 23.1049C2.18019 22.7262 2.21011 22.1825 2.55768 21.8349L10.2816 14.1105ZM23.0891 1.30351L22.9834 4.51888C22.9655 5.06658 22.6691 5.86884 22.3217 6.30218L18.0026 11.6907C17.6579 12.1208 16.9295 12.4666 16.3816 12.4557L14.7094 12.4226L14.4796 12.6505L13.1106 11.2815L23.0891 1.30351Z" fill="#3D474D"/>
</svg>

<svg xmlns="http://www.w3.org/2000/svg" fill="none" viewBox="0 0 24 24" width="100%" height="100%">
  <path fill="#3D474D" fill-rule="evenodd" d="M6.861 10.812c-.494-.193-1.197-.652-1.571-1.026L.204 4.7a.49.49 0 0 1-.007-.685.48.48 0 0 1 .673-.007l3.406 3.407a.48.48 0 0 0 .679-.679L1.549 3.33a.48.48 0 0 1 .678-.68l3.407 3.407a.48.48 0 0 0 .679-.679L2.906 1.972a.48.48 0 0 1 .692-.666l5.086 5.086c.374.374.837 1.086 1.025 1.571l.603 1.548c.193.494.656 1.196 1.035 1.568l11.056 10.859a.948.948 0 0 1 .007 1.352.971.971 0 0 1-1.364.005L9.989 12.436c-.379-.372-1.095-.832-1.58-1.021l-1.548-.603Zm3.421 3.298 1.367 1.367-7.731 7.716a.966.966 0 0 1-1.272.083l-.09-.08-.081-.091a.96.96 0 0 1 .083-1.27l7.724-7.725ZM23.089 1.305l-.106 3.215c-.018.548-.314 1.35-.661 1.783l-4.32 5.389c-.344.43-1.072.776-1.62.765l-1.673-.033-.23.227-1.368-1.369 9.978-9.977Z" clip-rule="evenodd"/>
</svg>
